X:104
T:The Major
T:John Malchair's Third Collection of Tunes
%%VWML:Malchair-3619-p104
F:https://www.vwml.org/record/Malchair/3619/p104
F:www.vwml.org/topics/historic-dance-and-tune-books/Malchair
Z:Peter Kanssen March 2020
M:6/8
L:1/8
K:C
cBA ABA | ecA Bcd | cBA ABA |  dBG  Bcd :|
|:c2e efe | efg aga | c2e efg | fdB Bcd :|
|:cBA a3 | ecA Bcd | cBA gfg | dBG Bcd :|
W:
T:The Merry Dancers
T:John Malchair's Third Collection of Tunes
F:https://www.vwml.org/record/Malchair/3619/104
F:www.vwml.org/topics/historic-dance-and-tune-books/Malchair
M:6/8
L:1/8
K:G
c| BAB cGE | GAG G2c | BAB cGE | DED D2c | 
BAB cGE | GAG G2c | (B/c/d)B c2B | AFD D2 ||
c| (B/c/d)B GAG | (B/c/d)B G2c | (B/c/d)B GAB | AFD D2c | 
(B/c/d)B GAG | B/c/dB c2e | dcB c2B | AFD D2 ||
g fef gdB | gdB G2g | fef gdB | AFD D2g | 
fef gdB | def gdB | c2a B2g | AFD D2 ||
W: 
T:Irish Trott
T:John Malchair's Third Collection of Tunes
F:https://www.vwml.org/record/Malchair/3619/104
F:www.vwml.org/topics/historic-dance-and-tune-books/Malchair
M:6/8
L:1/8
K:D
|:efg gag | efg gag | fdf ecA | d2d f2d :|
|:ecA ABA | ecA ABA | fga ecA | d2d f2d :|


